packages/katcn/src/icons/svg/arrow4-solid.svg

<svg width="24" height="25" viewBox="0 0 24 25" fill="none" xmlns="http://www.w3.org/2000/svg">
<path d="M12.1 21.296C11.6 21.296 11.2 21.196 10.7 20.996C9.6 20.496 9 19.396 9 18.196V6.39599C9 5.19599 9.7 4.19599 10.8 3.59599C11.9 3.09599 13.2 3.19599 14.1 3.99599L21.4 9.89599C22.1 10.496 22.5 11.296 22.5 12.296C22.5 13.196 22.1 14.096 21.4 14.696L14.1 20.596C13.5 21.096 12.8 21.296 12.1 21.296Z" fill="black"/>
<path d="M6 18.296C5.4 18.296 5 17.896 5 17.296V7.29599C5 6.69599 5.4 6.29599 6 6.29599C6.6 6.29599 7 6.69599 7 7.29599V17.296C7 17.896 6.6 18.296 6 18.296Z" fill="black"/>
<path d="M2 16.296C1.4 16.296 1 15.896 1 15.296V9.29599C1 8.69599 1.4 8.29599 2 8.29599C2.6 8.29599 3 8.69599 3 9.29599V15.296C3 15.896 2.6 16.296 2 16.296Z" fill="black"/>
</svg>

<svg xmlns="http://www.w3.org/2000/svg" fill="none" viewBox="0 0 24 25"><path fill="#000" d="M12.1 21.296c-.5 0-.9-.1-1.4-.3-1.1-.5-1.7-1.6-1.7-2.8v-11.8c0-1.2.7-2.2 1.8-2.8 1.1-.5 2.4-.4 3.3.4l7.3 5.9c.7.6 1.1 1.4 1.1 2.4 0 .9-.4 1.8-1.1 2.4l-7.3 5.9c-.6.5-1.3.7-2 .7m-6.1-3c-.6 0-1-.4-1-1v-10c0-.6.4-1 1-1s1 .4 1 1v10c0 .6-.4 1-1 1m-4-2c-.6 0-1-.4-1-1v-6c0-.6.4-1 1-1s1 .4 1 1v6c0 .6-.4 1-1 1"/></svg>
